images/implementation/step-3.svg

<svg xmlns="http://www.w3.org/2000/svg" width="274" height="314" fill="none" viewBox="0 0 274 314"><path fill="#efeeff" d="M33.496 226.798v-8.955H80.98v8.747q0 21.658 15.203 32.697 15.204 10.83 41.028 10.83 26.657 0 40.403-11.455 13.953-11.454 13.953-38.528 0-26.033-16.244-37.488-16.245-11.454-46.026-11.454h-29.99v-41.444h27.907q27.283.208 41.028-10.622 13.953-11.037 13.954-34.78 0-21.867-11.455-31.447-11.246-9.58-33.947-9.58-22.492 0-35.613 10.204-12.912 9.997-12.912 29.365v7.498H40.993v-8.122q0-36.863 27.283-59.563Q95.558 0 137.419 0q43.527 0 68.31 21.243t24.784 58.522q0 25.407-12.08 42.485-12.078 16.87-35.613 26.033v.833q25.2 5.832 41.445 24.367 16.244 18.327 16.244 49.566 0 42.278-27.699 66.228t-75.807 23.95q-45.819 0-74.767-23.534-28.74-23.534-28.74-62.895"/><path fill="#b1abff" d="M119.518 103.054c.21-1.079 1.754-1.079 1.964 0l1.735 8.938c.078.4.391.713.791.791l8.938 1.735c1.079.21 1.079 1.754 0 1.964l-8.938 1.735c-.4.078-.713.391-.791.791l-1.735 8.938c-.21 1.079-1.754 1.079-1.964 0l-1.735-8.938a1 1 0 0 0-.791-.791l-8.938-1.735c-1.079-.21-1.079-1.754 0-1.964l8.938-1.735c.4-.078.713-.391.791-.791zM147.518 116.054c.21-1.079 1.754-1.079 1.964 0l.76 3.913c.077.401.39.714.791.791l3.913.76c1.079.21 1.079 1.754 0 1.964l-3.913.76a1 1 0 0 0-.791.791l-.76 3.913c-.21 1.079-1.754 1.079-1.964 0l-.76-3.913a1 1 0 0 0-.791-.791l-3.913-.76c-1.079-.21-1.079-1.754 0-1.964l3.913-.76a1 1 0 0 0 .791-.791zM132.518 131.054c.21-1.079 1.754-1.079 1.964 0l.76 3.913c.077.401.39.714.791.791l3.913.76c1.079.21 1.079 1.754 0 1.964l-3.913.76a1 1 0 0 0-.791.791l-.76 3.913c-.21 1.079-1.754 1.079-1.964 0l-.76-3.913a1 1 0 0 0-.791-.791l-3.913-.76c-1.079-.21-1.079-1.754 0-1.964l3.913-.76a1 1 0 0 0 .791-.791z"/><path fill="url(#a)" d="M242 215v-14.333c0-7.603-2.95-14.895-8.201-20.271S221.426 172 214 172h-42c-7.426 0-14.548 3.02-19.799 8.396S144 193.064 144 200.667V215"/><path fill="url(#b)" d="M193 163c16.016 0 29-12.536 29-28s-12.984-28-29-28-29 12.536-29 28 12.984 28 29 28"/><path fill="url(#c)" d="M144 215h98a5 5 0 0 1-5 5h-88a5 5 0 0 1-5-5"/><path fill="#b1abff" d="M123 215v-14.333c0-7.603-2.95-14.895-8.201-20.271S102.426 172 95 172H53c-7.426 0-14.548 3.02-19.799 8.396S25 193.064 25 200.667V215M74 163c16.016 0 29-12.536 29-28s-12.984-28-29-28-29 12.536-29 28 12.984 28 29 28M25 215h98a5 5 0 0 1-5 5H30a5 5 0 0 1-5-5"/><defs><linearGradient id="a" x1="193" x2="193" y1="107" y2="220" gradientUnits="userSpaceOnUse"><stop stop-color="#9396ff"/><stop offset="1" stop-color="#6e3aff"/></linearGradient><linearGradient id="b" x1="193" x2="193" y1="107" y2="220" gradientUnits="userSpaceOnUse"><stop stop-color="#9396ff"/><stop offset="1" stop-color="#6e3aff"/></linearGradient><linearGradient id="c" x1="193" x2="193" y1="107" y2="220" gradientUnits="userSpaceOnUse"><stop stop-color="#9396ff"/><stop offset="1" stop-color="#6e3aff"/></linearGradient></defs></svg>

<svg width="274" height="314" viewBox="0 0 274 314" fill="none" xmlns="http://www.w3.org/2000/svg">
<path d="M33.4961 226.798V217.843H80.98V226.59C80.98 241.029 86.0477 251.928 96.1832 259.287C106.319 266.507 119.995 270.117 137.211 270.117C154.983 270.117 168.45 266.299 177.614 258.662C186.916 251.026 191.567 238.183 191.567 220.134C191.567 202.778 186.153 190.283 175.323 182.646C164.493 175.01 149.151 171.192 129.297 171.192H99.3071V129.748H127.214C145.403 129.886 159.078 126.346 168.242 119.126C177.544 111.768 182.196 100.174 182.196 84.3464C182.196 69.768 178.377 59.2854 170.741 52.8987C163.244 46.512 151.928 43.3186 136.794 43.3186C121.799 43.3186 109.928 46.7203 101.181 53.5235C92.5733 60.1879 88.2692 69.9763 88.2692 82.8885V90.386H40.9935V82.2638C40.9935 57.6888 50.0877 37.8344 68.276 22.7006C86.4642 7.56688 109.512 0 137.419 0C166.437 0 189.207 7.08093 205.729 21.2428C222.251 35.4047 230.513 54.9119 230.513 79.7646C230.513 96.7033 226.486 110.865 218.433 122.25C210.381 133.496 198.51 142.174 182.82 148.283V149.116C199.62 153.004 213.435 161.126 224.265 173.483C235.094 185.701 240.509 202.223 240.509 223.049C240.509 251.234 231.276 273.31 212.81 289.277C194.344 305.244 169.075 313.227 137.003 313.227C106.457 313.227 81.5353 305.382 62.2363 289.693C43.0762 274.004 33.4961 253.039 33.4961 226.798Z" fill="#EFEEFF"/>
<path d="M119.518 103.054C119.728 101.975 121.272 101.975 121.482 103.054L123.217 111.992C123.295 112.392 123.608 112.705 124.008 112.783L132.946 114.518C134.025 114.728 134.025 116.272 132.946 116.482L124.008 118.217C123.608 118.295 123.295 118.608 123.217 119.008L121.482 127.946C121.272 129.025 119.728 129.025 119.518 127.946L117.783 119.008C117.705 118.608 117.392 118.295 116.992 118.217L108.054 116.482C106.975 116.272 106.975 114.728 108.054 114.518L116.992 112.783C117.392 112.705 117.705 112.392 117.783 111.992L119.518 103.054Z" fill="#B1ABFF"/>
<path d="M147.518 116.054C147.728 114.975 149.272 114.975 149.482 116.054L150.242 119.967C150.319 120.368 150.632 120.681 151.033 120.758L154.946 121.518C156.025 121.728 156.025 123.272 154.946 123.482L151.033 124.242C150.632 124.319 150.319 124.632 150.242 125.033L149.482 128.946C149.272 130.025 147.728 130.025 147.518 128.946L146.758 125.033C146.681 124.632 146.368 124.319 145.967 124.242L142.054 123.482C140.975 123.272 140.975 121.728 142.054 121.518L145.967 120.758C146.368 120.681 146.681 120.368 146.758 119.967L147.518 116.054Z" fill="#B1ABFF"/>
<path d="M132.518 131.054C132.728 129.975 134.272 129.975 134.482 131.054L135.242 134.967C135.319 135.368 135.632 135.681 136.033 135.758L139.946 136.518C141.025 136.728 141.025 138.272 139.946 138.482L136.033 139.242C135.632 139.319 135.319 139.632 135.242 140.033L134.482 143.946C134.272 145.025 132.728 145.025 132.518 143.946L131.758 140.033C131.681 139.632 131.368 139.319 130.967 139.242L127.054 138.482C125.975 138.272 125.975 136.728 127.054 136.518L130.967 135.758C131.368 135.681 131.681 135.368 131.758 134.967L132.518 131.054Z" fill="#B1ABFF"/>
<path d="M242 215V200.667C242 193.064 239.05 185.772 233.799 180.396C228.548 175.02 221.426 172 214 172H172C164.574 172 157.452 175.02 152.201 180.396C146.95 185.772 144 193.064 144 200.667V215" fill="url(#paint0_linear_918_320)"/>
<path d="M193 163C209.016 163 222 150.464 222 135C222 119.536 209.016 107 193 107C176.984 107 164 119.536 164 135C164 150.464 176.984 163 193 163Z" fill="url(#paint1_linear_918_320)"/>
<path d="M144 215H242C242 217.761 239.761 220 237 220H149C146.239 220 144 217.761 144 215Z" fill="url(#paint2_linear_918_320)"/>
<path d="M123 215V200.667C123 193.064 120.05 185.772 114.799 180.396C109.548 175.02 102.426 172 95 172H53C45.5739 172 38.452 175.02 33.201 180.396C27.95 185.772 25 193.064 25 200.667V215" fill="#B1ABFF"/>
<path d="M74 163C90.0163 163 103 150.464 103 135C103 119.536 90.0163 107 74 107C57.9837 107 45 119.536 45 135C45 150.464 57.9837 163 74 163Z" fill="#B1ABFF"/>
<path d="M25 215H123C123 217.761 120.761 220 118 220H30C27.2386 220 25 217.761 25 215Z" fill="#B1ABFF"/>
<defs>
<linearGradient id="paint0_linear_918_320" x1="193" y1="107" x2="193" y2="220" gradientUnits="userSpaceOnUse">
<stop stop-color="#9396FF"/>
<stop offset="1" stop-color="#6E3AFF"/>
</linearGradient>
<linearGradient id="paint1_linear_918_320" x1="193" y1="107" x2="193" y2="220" gradientUnits="userSpaceOnUse">
<stop stop-color="#9396FF"/>
<stop offset="1" stop-color="#6E3AFF"/>
</linearGradient>
<linearGradient id="paint2_linear_918_320" x1="193" y1="107" x2="193" y2="220" gradientUnits="userSpaceOnUse">
<stop stop-color="#9396FF"/>
<stop offset="1" stop-color="#6E3AFF"/>
</linearGradient>
</defs>
</svg>
